app/images/customer-modal/third-modal/analytics.svg

<svg width="100" height="100" viewBox="0 0 100 100" fill="none" xmlns="http://www.w3.org/2000/svg">
<path d="M93.1803 86.0356C96.9406 86.0356 100 82.9762 100 79.2156V9.76562C100 4.38086 95.6191 0 90.2344 0H9.76562C4.38086 0 0 4.38086 0 9.76562V79.2156C0 82.9762 3.05937 86.0356 6.81973 86.0356H8.98438V96.0938H1.95312C0.874414 96.0938 0 96.9684 0 98.0469C0 99.1254 0.874414 100 1.95312 100H98.0469C99.1256 100 100 99.1254 100 98.0469C100 96.9684 99.1256 96.0938 98.0469 96.0938H91.0156V86.0356H93.1803ZM3.90625 9.76562C3.90625 6.53477 6.53477 3.90625 9.76562 3.90625H90.2344C93.4652 3.90625 96.0938 6.53477 96.0938 9.76562V14.0625H4.10234C4.03613 14.0625 3.9707 14.066 3.90625 14.0725V9.76562ZM21.4844 96.0938H12.8906V78.5156H21.4844V96.0938ZM43.3594 96.0938H34.7656V56.9203H43.3594V96.0938ZM65.2344 96.0938H56.6406V73.4375H65.2344V96.0938ZM89.0625 50.0977H76.5625C75.4838 50.0977 74.6094 50.9723 74.6094 52.0508V61.9139C74.6094 62.9924 75.4838 63.867 76.5625 63.867C77.6412 63.867 78.5156 62.9924 78.5156 61.9139V54.0039H87.1094V96.0938H78.5156V75.0488C78.5156 73.9703 77.6412 73.0957 76.5625 73.0957C75.4838 73.0957 74.6094 73.9703 74.6094 75.0488V96.0938H69.1406V71.4844C69.1406 70.4059 68.2662 69.5312 67.1875 69.5312H54.6875C53.6088 69.5312 52.7344 70.4059 52.7344 71.4844V96.0938H47.2656V54.9672C47.2656 53.8887 46.3912 53.0141 45.3125 53.0141H32.8125C31.7338 53.0141 30.8594 53.8887 30.8594 54.9672V96.0938H25.3906V76.5625C25.3906 75.484 24.5162 74.6094 23.4375 74.6094H10.9375C9.85879 74.6094 8.98438 75.484 8.98438 76.5625V82.1293H6.81973C5.21309 82.1293 3.90625 80.8223 3.90625 79.2156V17.9588C3.9707 17.9652 4.03613 17.9688 4.10234 17.9688H96.0938V79.2156C96.0938 80.8223 94.7867 82.1293 93.1803 82.1293H91.0156V52.0508C91.0156 50.9723 90.1412 50.0977 89.0625 50.0977Z" fill="#BC6628"/>
<path d="M87.5 7.03125H43.3721C42.2934 7.03125 41.4189 7.90586 41.4189 8.98438C41.4189 10.0629 42.2934 10.9375 43.3721 10.9375H87.5C88.5787 10.9375 89.4531 10.0629 89.4531 8.98438C89.4531 7.90586 88.5787 7.03125 87.5 7.03125Z" fill="#BC6628"/>
<path d="M21.6934 7.60352C21.3301 7.24023 20.8262 7.03125 20.3125 7.03125C19.7988 7.03125 19.2949 7.24004 18.9316 7.60352C18.5684 7.9668 18.3594 8.4707 18.3594 8.98438C18.3594 9.49805 18.5684 10.002 18.9316 10.365C19.2949 10.7285 19.7988 10.9375 20.3125 10.9375C20.8262 10.9375 21.3301 10.7285 21.6934 10.365C22.0566 10.002 22.2656 9.49805 22.2656 8.98438C22.2656 8.4707 22.0566 7.9668 21.6934 7.60352Z" fill="#BC6628"/>
<path d="M13.8809 7.60352C13.5176 7.24023 13.0137 7.03125 12.5 7.03125C11.9863 7.03125 11.4824 7.24004 11.1191 7.60352C10.7559 7.9668 10.5469 8.4707 10.5469 8.98438C10.5469 9.49805 10.7559 10.002 11.1191 10.365C11.4824 10.7285 11.9863 10.9375 12.5 10.9375C13.0137 10.9375 13.5176 10.7285 13.8809 10.365C14.2441 10.002 14.4531 9.49805 14.4531 8.98438C14.4531 8.4707 14.2441 7.9668 13.8809 7.60352Z" fill="#BC6628"/>
<path d="M29.5059 7.60352C29.1426 7.24023 28.6406 7.03125 28.125 7.03125C27.6113 7.03125 27.1074 7.24004 26.7441 7.60352C26.3809 7.9668 26.1719 8.4707 26.1719 8.98438C26.1719 9.49805 26.3809 10.002 26.7441 10.365C27.1074 10.7285 27.6113 10.9375 28.125 10.9375C28.6387 10.9375 29.1426 10.7285 29.5059 10.365C29.8691 10.002 30.0781 9.49805 30.0781 8.98438C30.0781 8.4707 29.8691 7.9668 29.5059 7.60352Z" fill="#BC6628"/>
<path d="M77.9434 67.4941C77.5801 67.1289 77.0762 66.9219 76.5625 66.9219C76.0488 66.9219 75.5449 67.1291 75.1816 67.4941C74.8184 67.8574 74.6094 68.3613 74.6094 68.875C74.6094 69.3887 74.8184 69.8926 75.1816 70.2559C75.5449 70.6189 76.0488 70.8281 76.5625 70.8281C77.0762 70.8281 77.5801 70.6191 77.9434 70.2559C78.3066 69.8926 78.5156 69.3887 78.5156 68.875C78.5156 68.3594 78.3066 67.8574 77.9434 67.4941Z" fill="#BC6628"/>
<path d="M82.8126 26.5508C78.9354 26.5508 75.7813 29.7049 75.7813 33.582C75.7813 35.1221 76.2803 36.5471 77.1233 37.7066L64.1497 50.6803C63.1428 50.123 61.9862 49.8047 60.7561 49.8047C59.6477 49.8047 58.5989 50.0635 57.6655 50.5223L44.1188 36.9756C44.676 35.9687 44.9944 34.8121 44.9944 33.582C44.9944 29.7049 41.8403 26.5508 37.9631 26.5508C34.086 26.5508 30.9319 29.7049 30.9319 33.582C30.9319 34.9371 31.3182 36.2031 31.985 37.2777L20.4512 48.8113C19.4444 48.2541 18.2877 47.9357 17.0579 47.9357C13.1807 47.9357 10.0266 51.0898 10.0266 54.967C10.0266 58.8441 13.1807 61.9982 17.0579 61.9982C20.935 61.9982 24.0891 58.8441 24.0891 54.967C24.0891 53.7369 23.7708 52.5803 23.2135 51.5734L34.885 39.902C35.8153 40.3568 36.8598 40.6131 37.9631 40.6131C39.193 40.6131 40.3497 40.2947 41.3565 39.7375L54.7706 53.1514C54.1083 54.2236 53.7249 55.4853 53.7249 56.8355C53.7249 60.7127 56.879 63.8668 60.7561 63.8668C64.6333 63.8668 67.7874 60.7127 67.7874 56.8355C67.7874 55.6055 67.469 54.4488 66.9118 53.442L80.2331 40.1207C81.0325 40.4375 81.9022 40.6133 82.8126 40.6133C86.6897 40.6133 89.8438 37.4592 89.8438 33.582C89.8438 29.7049 86.6897 26.5508 82.8126 26.5508ZM17.0581 58.0924C15.335 58.0924 13.9331 56.6904 13.9331 54.9674C13.9331 53.2443 15.335 51.8424 17.0581 51.8424C18.7811 51.8424 20.1831 53.2443 20.1831 54.9674C20.1831 56.6904 18.7811 58.0924 17.0581 58.0924ZM37.9633 36.707C36.2403 36.707 34.8383 35.3051 34.8383 33.582C34.8383 31.859 36.2403 30.457 37.9633 30.457C39.6864 30.457 41.0883 31.859 41.0883 33.582C41.0883 35.3051 39.6864 36.707 37.9633 36.707ZM60.7563 59.9609C59.0333 59.9609 57.6313 58.559 57.6313 56.8359C57.6313 55.1129 59.0333 53.7109 60.7563 53.7109C62.4793 53.7109 63.8813 55.1129 63.8813 56.8359C63.8813 58.559 62.4793 59.9609 60.7563 59.9609ZM82.8126 36.707C81.0895 36.707 79.6876 35.3051 79.6876 33.582C79.6876 31.859 81.0895 30.457 82.8126 30.457C84.5356 30.457 85.9376 31.859 85.9376 33.582C85.9376 35.3051 84.5356 36.707 82.8126 36.707Z" fill="#BC6628"/>
<path d="M28.9707 25.1857C28.6055 24.8225 28.1035 24.6133 27.5898 24.6133C27.0742 24.6133 26.5703 24.8223 26.207 25.1857C25.8437 25.5488 25.6367 26.0527 25.6367 26.5664C25.6367 27.0801 25.8437 27.584 26.207 27.9473C26.5723 28.3105 27.0742 28.5195 27.5898 28.5195C28.1035 28.5195 28.6055 28.3107 28.9707 27.9473C29.334 27.584 29.543 27.0801 29.543 26.5664C29.543 26.0527 29.334 25.5488 28.9707 25.1857Z" fill="#BC6628"/>
<path d="M20.3125 24.6133H10.9375C9.85879 24.6133 8.98438 25.4879 8.98438 26.5664C8.98438 27.6449 9.85879 28.5195 10.9375 28.5195H20.3125C21.3912 28.5195 22.2656 27.6449 22.2656 26.5664C22.2656 25.4879 21.3912 24.6133 20.3125 24.6133Z" fill="#BC6628"/>
<path d="M20.3125 33.9883H10.9375C9.85879 33.9883 8.98438 34.8629 8.98438 35.9414C8.98438 37.0199 9.85879 37.8945 10.9375 37.8945H20.3125C21.3912 37.8945 22.2656 37.0199 22.2656 35.9414C22.2656 34.8629 21.3912 33.9883 20.3125 33.9883Z" fill="#BC6628"/>
</svg>

<svg width="100" height="100" fill="none" xmlns="http://www.w3.org/2000/svg"><path d="M93.18 86.036c3.76 0 6.82-3.06 6.82-6.82V9.766C100 4.38 95.62 0 90.234 0H9.766C4.38 0 0 4.38 0 9.766v69.45c0 3.76 3.06 6.82 6.82 6.82h2.164v10.058h-7.03a1.953 1.953 0 000 3.906h96.093a1.953 1.953 0 000-3.906h-7.031V86.036h2.164zM3.906 9.766c0-3.231 2.629-5.86 5.86-5.86h80.468c3.231 0 5.86 2.629 5.86 5.86v4.296H4.102c-.066 0-.131.004-.196.01V9.767zm17.578 86.328h-8.593V78.516h8.593v17.578zm21.875 0h-8.593V56.92h8.593v39.174zm21.875 0h-8.593V73.438h8.593v22.656zm23.829-45.996h-12.5a1.953 1.953 0 00-1.954 1.953v9.863a1.953 1.953 0 003.907 0v-7.91h8.593v42.09h-8.593V75.049a1.953 1.953 0 00-3.907 0v21.045h-5.468v-24.61a1.953 1.953 0 00-1.954-1.953h-12.5a1.953 1.953 0 00-1.953 1.953v24.61h-5.468V54.967a1.953 1.953 0 00-1.953-1.953h-12.5a1.953 1.953 0 00-1.954 1.953v41.127h-5.468V76.563a1.953 1.953 0 00-1.953-1.954h-12.5a1.953 1.953 0 00-1.954 1.954v5.566H6.82a2.917 2.917 0 01-2.914-2.913V17.959c.065.006.13.01.196.01h91.992v61.247a2.917 2.917 0 01-2.914 2.913h-2.164V52.051a1.953 1.953 0 00-1.954-1.953z" fill="#BC6628"/><path d="M87.5 7.031H43.372a1.953 1.953 0 000 3.907H87.5a1.953 1.953 0 000-3.907zM21.693 7.604a1.968 1.968 0 00-1.38-.573c-.514 0-1.018.209-1.381.573a1.968 1.968 0 00-.573 1.38c0 .514.21 1.018.573 1.381.363.364.867.572 1.38.572.514 0 1.018-.208 1.381-.572.364-.363.573-.867.573-1.38 0-.514-.21-1.018-.573-1.381zM13.88 7.604a1.968 1.968 0 00-1.38-.573c-.514 0-1.018.209-1.38.573a1.968 1.968 0 00-.573 1.38c0 .514.209 1.018.572 1.381.363.364.867.572 1.381.572s1.018-.208 1.38-.572c.364-.363.573-.867.573-1.38 0-.514-.209-1.018-.572-1.381zM29.506 7.604a1.965 1.965 0 00-1.381-.573c-.514 0-1.018.209-1.38.573a1.968 1.968 0 00-.573 1.38c0 .514.209 1.018.572 1.381.363.364.867.572 1.381.572s1.018-.208 1.38-.572c.364-.363.573-.867.573-1.38 0-.514-.209-1.018-.572-1.381zM77.943 67.494a1.96 1.96 0 00-1.38-.572 1.96 1.96 0 00-1.381.572 1.968 1.968 0 00-.573 1.381c0 .514.21 1.018.573 1.38a1.97 1.97 0 001.38.573c.514 0 1.018-.209 1.381-.572.364-.363.573-.867.573-1.381 0-.516-.21-1.018-.573-1.38zM82.813 26.55a7.04 7.04 0 00-7.032 7.032c0 1.54.5 2.965 1.342 4.125L64.15 50.68a6.987 6.987 0 00-3.394-.875 6.987 6.987 0 00-3.09.717L44.118 36.976a6.988 6.988 0 00.875-3.394 7.04 7.04 0 00-7.03-7.031 7.04 7.04 0 00-7.032 7.031c0 1.355.386 2.621 1.053 3.696L20.451 48.81a6.987 6.987 0 00-3.393-.875 7.04 7.04 0 00-7.031 7.031 7.04 7.04 0 007.03 7.031 7.04 7.04 0 007.032-7.031c0-1.23-.318-2.387-.875-3.394l11.671-11.671a6.99 6.99 0 003.078.711c1.23 0 2.387-.318 3.393-.876l13.415 13.414a6.988 6.988 0 00-1.046 3.684 7.04 7.04 0 007.031 7.032 7.04 7.04 0 007.031-7.031c0-1.23-.318-2.387-.875-3.394l13.321-13.321c.8.316 1.67.492 2.58.492a7.04 7.04 0 007.03-7.031 7.04 7.04 0 00-7.03-7.031zM17.058 58.093a3.129 3.129 0 01-3.125-3.125 3.129 3.129 0 013.125-3.125 3.129 3.129 0 013.125 3.125 3.129 3.129 0 01-3.125 3.125zm20.905-21.385a3.129 3.129 0 01-3.125-3.125 3.129 3.129 0 013.125-3.125 3.129 3.129 0 013.125 3.125 3.129 3.129 0 01-3.125 3.125zm22.793 23.254a3.129 3.129 0 01-3.125-3.125 3.129 3.129 0 013.125-3.125 3.129 3.129 0 013.125 3.125 3.129 3.129 0 01-3.125 3.125zm22.057-23.254a3.129 3.129 0 01-3.125-3.125 3.129 3.129 0 013.125-3.125 3.129 3.129 0 013.125 3.125 3.129 3.129 0 01-3.125 3.125zM28.97 25.186a1.972 1.972 0 00-1.38-.573c-.516 0-1.02.21-1.383.573s-.57.867-.57 1.38c0 .514.207 1.018.57 1.381.365.364.867.573 1.383.573a1.97 1.97 0 001.38-.573c.364-.363.573-.867.573-1.38 0-.514-.209-1.018-.572-1.381zM20.313 24.613h-9.375a1.953 1.953 0 000 3.907h9.374a1.953 1.953 0 000-3.907zM20.313 33.988h-9.375a1.953 1.953 0 000 3.907h9.374a1.953 1.953 0 000-3.907z" fill="#BC6628"/></svg>
